X:25
T: ICH GIENG MAL UEBER EINEN BUNGERT
N: E0007A
O: Europa, Mitteleuropa, Deutschland, Bonn, Kessenich
R: Sage, Maerchen -, Zauber - Lied
M: 2/4
L: 1/16
K: A
E2 | A2E2A2B2 | c4d2c2 | B4z2
E2 | A2E2A2B2 | c4d2c2 | B4z2
B2 | e2d2c2B2 | A3BA2G2 | F2E2
B4 | e2d2c2A2 | B4c2B2 | A4z2

